papirus/16x16/mimetypes/application-x-plasma.svg

<?xml version="1.0" encoding="UTF-8" standalone="no"?>
<svg
   xmlns:dc="http://purl.org/dc/elements/1.1/"
   xmlns:cc="http://creativecommons.org/ns#"
   xmlns:rdf="http://www.w3.org/1999/02/22-rdf-syntax-ns#"
   xmlns:svg="http://www.w3.org/2000/svg"
   xmlns="http://www.w3.org/2000/svg"
   xmlns:sodipodi="http://sodipodi.sourceforge.net/DTD/sodipodi-0.dtd"
   xmlns:inkscape="http://www.inkscape.org/namespaces/inkscape"
   id="svg2"
   height="16px"
   width="16px"
   version="1.1"
   viewBox="0 0 16 16"
   inkscape:version="0.91 r"
   sodipodi:docname="application-x-plasma.svg">
  <defs
     id="defs11" />
  <sodipodi:namedview
     pagecolor="#ffffff"
     bordercolor="#666666"
     borderopacity="1"
     objecttolerance="10"
     gridtolerance="10"
     guidetolerance="10"
     inkscape:pageopacity="0"
     inkscape:pageshadow="2"
     inkscape:window-width="1535"
     inkscape:window-height="876"
     id="namedview9"
     showgrid="false"
     inkscape:zoom="14.75"
     inkscape:cx="-15.864407"
     inkscape:cy="8"
     inkscape:window-x="65"
     inkscape:window-y="24"
     inkscape:window-maximized="1"
     inkscape:current-layer="svg2" />
  <metadata
     id="metadata17">
    <rdf:RDF>
      <cc:Work
         rdf:about="">
        <dc:format>image/svg+xml</dc:format>
        <dc:type
           rdf:resource="http://purl.org/dc/dcmitype/StillImage" />
      </cc:Work>
    </rdf:RDF>
  </metadata>
  <path
     style="fill:#deab47"
     inkscape:connector-curvature="0"
     d="M 2.75,1 C 2.33276,1 2,1.33276 2,1.75 l 0,13.5 C 2,15.667192 2.332808,16 2.75,16 l 10.5,0 C 13.6676,16 14,15.6676 14,15.25 L 14,5.5 9.875,5.125 9.5,1 Z"
     id="path5" />
  <path
     style="fill:#f5cc7a"
     inkscape:connector-curvature="0"
     d="m 9.5,1 0,3.75 c 0,0.41256 0.33744,0.75 0.75,0.75 l 3.75,0 z"
     id="path7" />
  <path
     style="fill:#ffffff"
     d="m 7.1691715,7.0000711 c -0.1476065,0 -0.2953242,0.018989 -0.4211454,0.05234 C 5.7798028,7.3091232 4.7941291,7.7988108 4.2991804,8.9162187 3.5350277,10.732554 4.2861544,12.886424 5.9664228,13.709022 6.8999007,14.155973 7.7812717,14.113175 8.5107459,13.404717 8.7278319,13.195501 8.901503,12.953018 8.9709715,12.605916 9.1099083,11.911723 8.7755929,10.932239 7.4123221,10.266542 6.1271005,9.6390647 5.8882403,8.7117866 6.0706366,8.1031766 6.2529218,7.4945667 6.9302668,6.9430443 7.9809629,7.1760202 8.0938908,7.1998777 8.2023727,7.2331078 8.3153006,7.275954 8.1025605,7.1190543 7.6162814,6.9953848 7.169127,7.0001319 Z"
     id="path4149"
     inkscape:connector-curvature="0" />
  <path
     style="fill:#ffffff"
     d="M 9.5,7 C 9.22496,7 9,7.22496 9,7.5 9,7.77504 9.22496,8 9.5,8 9.77504,8 10,7.77504 10,7.5 10,7.22496 9.77504,7 9.5,7 Z"
     id="path4147"
     inkscape:connector-curvature="0" />
  <path
     style="fill:#ffffff"
     d="M 10.5,9 C 10.2248,9 10,9.22496 10,9.5 10,9.77504 10.2248,10 10.5,10 10.7752,10 11,9.77504 11,9.5 11,9.22496 10.7752,9 10.5,9 Z"
     id="path4145"
     inkscape:connector-curvature="0" />
  <path
     style="fill:#ffffff"
     d="M 10.5,11 C 10.2248,11 10,11.22496 10,11.5 10,11.77504 10.2248,12 10.5,12 10.7752,12 11,11.77504 11,11.5 11,11.22496 10.7752,11 10.5,11 Z"
     id="path9"
     inkscape:connector-curvature="0" />
  <path
     style="fill:#ffffff;fill-opacity:0.2"
     inkscape:connector-curvature="0"
     d="M 2.75,1 C 2.33276,1 2,1.33276 2,1.75 l 0,0.6 C 2,1.93276 2.33276,1.6 2.75,1.6 l 6.75,0 0,-0.6 z"
     id="path11" />
</svg>

<?xml version="1.0" encoding="UTF-8" standalone="no"?>
<svg id="svg2" xmlns:rdf="http://www.w3.org/1999/02/22-rdf-syntax-ns#" xmlns="http://www.w3.org/2000/svg" height="16px" width="16px" version="1.1" xmlns:cc="http://creativecommons.org/ns#" viewBox="0 0 16 16" xmlns:dc="http://purl.org/dc/elements/1.1/">
 <metadata id="metadata17">
  <rdf:RDF>
   <cc:Work rdf:about="">
    <dc:format>image/svg+xml</dc:format>
    <dc:type rdf:resource="http://purl.org/dc/dcmitype/StillImage"/>
   </cc:Work>
  </rdf:RDF>
 </metadata>
 <path id="path5" fill="#deab47" d="m2.75 1c-0.4172 0-0.75 0.3328-0.75 0.75v13.5c0 0.417 0.3328 0.75 0.75 0.75h10.5c0.418 0 0.75-0.332 0.75-0.75v-9.75l-4.125-0.375-0.375-4.125z"/>
 <path id="path7" fill="#f5cc7a" d="m9.5 1v3.75c0 0.41256 0.33744 0.75 0.75 0.75h3.75z"/>
 <path id="path4149" fill="#fff" d="m7.1692 7.0001c-0.14761 0-0.29532 0.018989-0.42115 0.05234-0.9682 0.2567-1.9539 0.7464-2.4488 1.8638-0.7642 1.8168-0.013 3.9698 1.6672 4.7928 0.9335 0.447 1.8149 0.404 2.5443-0.304 0.2171-0.209 0.3908-0.452 0.4603-0.799 0.1389-0.694-0.1954-1.674-1.5587-2.339-1.2852-0.6279-1.5241-1.5552-1.3417-2.1638 0.1823-0.6086 0.8597-1.1602 1.9104-0.9272 0.1129 0.0239 0.2214 0.0571 0.3343 0.1-0.2127-0.1569-0.699-0.2806-1.1462-0.2759z"/>
 <path id="path4147" fill="#fff" d="m9.5 7c-0.275 0-0.5 0.225-0.5 0.5s0.225 0.5 0.5 0.5 0.5-0.225 0.5-0.5-0.225-0.5-0.5-0.5z"/>
 <path id="path4145" fill="#fff" d="m10.5 9c-0.275 0-0.5 0.225-0.5 0.5s0.225 0.5 0.5 0.5 0.5-0.225 0.5-0.5-0.225-0.5-0.5-0.5z"/>
 <path id="path9" fill="#fff" d="m10.5 11c-0.275 0-0.5 0.225-0.5 0.5s0.225 0.5 0.5 0.5 0.5-0.225 0.5-0.5-0.225-0.5-0.5-0.5z"/>
 <path id="path11" fill-opacity=".2" fill="#fff" d="m2.75 1c-0.4172 0-0.75 0.3328-0.75 0.75v0.6c0-0.4172 0.3328-0.75 0.75-0.75h6.75v-0.6z"/>
</svg>
